build/img/sprites/tg-dark.svg

<svg width="13" height="11" viewBox="0 0 21 17" fill="none" xmlns="http://www.w3.org/2000/svg">
<path d="M18.5063 0.482445L1.44352 7.16149C0.75688 7.47252 0.52464 8.09539 1.27756 8.43343L5.6549 9.84551L16.2388 3.20582C16.8167 2.789 17.4083 2.90014 16.8992 3.35868L7.80908 11.7133L7.52353 15.2489C7.78801 15.7948 8.27228 15.7974 8.58118 15.526L11.0961 13.1105L15.4033 16.3845C16.4037 16.9856 16.948 16.5977 17.1632 15.4958L19.9884 1.91671C20.2817 0.560394 19.7815 -0.0372121 18.5063 0.482445Z" fill="#ffffff"/>
</svg>

<svg width="13" height="11" viewBox="0 0 21 17" fill="none" xmlns="http://www.w3.org/2000/svg"><path d="M18.506.482L1.444 7.162c-.687.31-.92.933-.166 1.271l4.377 1.413 10.584-6.64c.578-.417 1.17-.306.66.153l-9.09 8.354-.285 3.536c.264.546.748.548 1.057.277l2.515-2.415 4.307 3.273c1 .602 1.545.214 1.76-.888l2.825-13.58C20.282.56 19.782-.036 18.506.483z" fill="#fff"/></svg>
